public/img/search.svg

<svg width="42" height="42" viewBox="0 0 42 42" fill="none" xmlns="http://www.w3.org/2000/svg">
<rect width="42" height="42" rx="8" fill="#08A6BB"/>
<path d="M19.2635 29.526C21.5407 29.5255 23.7523 28.7632 25.5461 27.3605L31.1859 33L33 31.186L27.3602 25.5465C28.7637 23.7526 29.5265 21.5407 29.5271 19.263C29.5271 13.6042 24.9226 9 19.2635 9C13.6045 9 9 13.6042 9 19.263C9 24.9217 13.6045 29.526 19.2635 29.526ZM19.2635 11.5657C23.5088 11.5657 26.9612 15.018 26.9612 19.263C26.9612 23.508 23.5088 26.9602 19.2635 26.9602C15.0183 26.9602 11.5659 23.508 11.5659 19.263C11.5659 15.018 15.0183 11.5657 19.2635 11.5657Z" fill="white"/>
<path d="M21.2583 16.7815C21.8179 17.3454 22.1266 18.0905 22.1266 18.88H25.08C25.0813 18.1 24.9288 17.3275 24.6312 16.6071C24.3336 15.8867 23.8969 15.2327 23.3463 14.683C21.1106 12.439 17.2343 12.439 15 14.683L17.0851 16.7845C18.2074 15.6595 20.1419 15.6625 21.2583 16.7815Z" fill="white"/>
</svg>

<svg width="42" height="42" fill="none" xmlns="http://www.w3.org/2000/svg"><rect width="42" height="42" rx="8" fill="#08A6BB"/><path d="M19.264 29.526c2.277 0 4.488-.763 6.282-2.166l5.64 5.64L33 31.186l-5.64-5.64a10.202 10.202 0 002.167-6.283C29.527 13.604 24.923 9 19.263 9 13.605 9 9 13.604 9 19.263s4.604 10.263 10.264 10.263zm0-17.96c4.245 0 7.697 3.452 7.697 7.697s-3.452 7.697-7.697 7.697c-4.246 0-7.698-3.452-7.698-7.697s3.452-7.697 7.697-7.697z" fill="#fff"/><path d="M21.258 16.782c.56.563.869 1.308.869 2.098h2.953a5.927 5.927 0 00-1.734-4.197c-2.235-2.244-6.112-2.244-8.346 0l2.085 2.102c1.122-1.126 3.057-1.123 4.173-.003z" fill="#fff"/></svg>
